fonts/piswpi/uni0068.svg

<svg width="500" height="900" xmlns="http://www.w3.org/2000/svg">
    <path
        d="M 50 400 A 50 50 0 0 0 0 450 A 50 50 0 0 0 50 500 A 50 50 0 0 0 100 450 A 50 50 0 0 0 50 400 z M 108.57812 541.42188 A 50 50 0 0 0 58.578125 591.42188 A 50 50 0 0 0 108.57812 641.42188 A 50 50 0 0 0 158.57812 591.42188 A 50 50 0 0 0 108.57812 541.42188 z M 250 600 A 50 50 0 0 0 200 650 A 50 50 0 0 0 250 700 A 50 50 0 0 0 300 650 A 50 50 0 0 0 250 600 z " />
</svg>

<svg width="500" height="900" xmlns="http://www.w3.org/2000/svg">
    <path d="M0 450a50 50 0 0 0 50 50 50 50 0 0 0 50-50 50 50 0 0 0-50-50 50 50 0 0 0-50 50zm58.705 144.988a50 50 0 0 0 14.518 31.79 50 50 0 0 0 70.71 0 50 50 0 0 0 0-70.712 50 50 0 0 0-70.71 0 50 50 0 0 0-14.518 38.922zM200 650a50 50 0 0 0 50 50 50 50 0 0 0 50-50 50 50 0 0 0-50-50 50 50 0 0 0-50 50z"/>
</svg>
